src/assets/outline/HeartRemove.svg

<svg width="24" height="24" viewBox="0 0 24 24"  xmlns="http://www.w3.org/2000/svg">
<path d="M17.1999 22.7504C15.6299 22.7504 14.1299 22.0804 13.0699 20.9004C12.1499 19.8704 11.6499 18.5604 11.6499 17.2004C11.6499 14.1404 14.1399 11.6504 17.1999 11.6504C18.7399 11.6504 20.1699 12.2704 21.2399 13.3904C21.2699 13.4204 21.2999 13.4604 21.3199 13.4904C22.2599 14.5504 22.7499 15.8404 22.7499 17.1904C22.7499 20.2604 20.2599 22.7504 17.1999 22.7504ZM17.1999 13.1504C14.9699 13.1504 13.1499 14.9704 13.1499 17.2004C13.1499 18.1904 13.5199 19.1504 14.1899 19.9004C14.9599 20.7604 16.0599 21.2504 17.1999 21.2504C19.4299 21.2504 21.2499 19.4304 21.2499 17.2004C21.2499 16.1704 20.8599 15.1904 20.1399 14.4304C20.1199 14.4104 20.0999 14.3804 20.0799 14.3604C19.3099 13.5804 18.2899 13.1504 17.1999 13.1504Z" />
<path d="M18.4799 19.2895C18.2899 19.2895 18.0999 19.2195 17.9499 19.0695L15.4099 16.5295C15.1199 16.2395 15.1199 15.7595 15.4099 15.4695C15.6999 15.1795 16.1799 15.1795 16.4699 15.4695L19.0099 18.0095C19.2999 18.2995 19.2999 18.7795 19.0099 19.0695C18.8699 19.2095 18.6699 19.2895 18.4799 19.2895Z" />
<path d="M15.9198 19.3197C15.7298 19.3197 15.5399 19.2497 15.3899 19.0997C15.0999 18.8097 15.0999 18.3297 15.3899 18.0397L17.9298 15.4997C18.2198 15.2097 18.6998 15.2097 18.9898 15.4997C19.2798 15.7897 19.2798 16.2697 18.9898 16.5597L16.4499 19.0997C16.2999 19.2397 16.1098 19.3197 15.9198 19.3197Z" />
<path d="M12 21.6497C11.69 21.6497 11.38 21.6097 11.13 21.5197C8.57 20.6497 1.25 16.4096 1.25 8.68964C1.25 5.18964 4.08 2.34961 7.56 2.34961C9.23 2.34961 10.83 3.01964 12 4.18964C13.17 3.01964 14.78 2.34961 16.44 2.34961C19.92 2.34961 22.75 5.18964 22.75 8.68964C22.75 10.6396 22.28 12.5096 21.35 14.2596C21.24 14.4696 21.03 14.6197 20.79 14.6497C20.55 14.6797 20.31 14.5996 20.14 14.4196C19.36 13.5996 18.31 13.1396 17.19 13.1396C14.96 13.1396 13.14 14.9596 13.14 17.1896C13.14 18.1796 13.51 19.1396 14.18 19.8896C14.34 20.0696 14.4 20.3096 14.35 20.5396C14.3 20.7696 14.14 20.9696 13.93 21.0696C13.53 21.2496 13.17 21.3996 12.84 21.5096C12.61 21.6096 12.31 21.6497 12 21.6497ZM7.56 3.84961C4.91 3.84961 2.75 6.01964 2.75 8.68964C2.75 15.5296 9.31999 19.3096 11.62 20.0996C11.8 20.1696 12.19 20.1596 12.37 20.0996C12.4 20.0896 12.43 20.0796 12.46 20.0696C11.94 19.2096 11.65 18.2196 11.65 17.1996C11.65 14.1396 14.14 11.6497 17.2 11.6497C18.38 11.6497 19.5 12.0196 20.44 12.6896C20.98 11.4096 21.25 10.0696 21.25 8.68964C21.25 6.01964 19.09 3.84961 16.44 3.84961C14.94 3.84961 13.5 4.56966 12.6 5.77966C12.32 6.15966 11.68 6.15966 11.4 5.77966C10.5 4.56966 9.06 3.84961 7.56 3.84961Z" />
</svg>

<?xml version="1.0" encoding="UTF-8"?>
<svg width="24" height="24" viewBox="0 0 24 24" xmlns="http://www.w3.org/2000/svg">
 <path d="m17.2 22.75c-1.57 0-3.07-0.67-4.13-1.85-0.92-1.03-1.42-2.34-1.42-3.7 0-3.06 2.49-5.55 5.55-5.55 1.54 0 2.97 0.62 4.04 1.74 0.03 0.03 0.06 0.07 0.08 0.1 0.94 1.06 1.43 2.35 1.43 3.7 0 3.07-2.49 5.56-5.55 5.56zm0-9.6c-2.23 0-4.05 1.82-4.05 4.05 0 0.99 0.37 1.95 1.04 2.7 0.77 0.86 1.87 1.35 3.01 1.35 2.23 0 4.05-1.82 4.05-4.05 0-1.03-0.39-2.01-1.11-2.77-0.02-0.02-0.04-0.05-0.06-0.07-0.77-0.78-1.79-1.21-2.88-1.21z"/>
 <path d="m18.48 19.29c-0.19 0-0.38-0.07-0.53-0.22l-2.54-2.54c-0.29-0.29-0.29-0.77 0-1.06s0.77-0.29 1.06 0l2.54 2.54c0.29 0.29 0.29 0.77 0 1.06-0.14 0.14-0.34 0.22-0.53 0.22z"/>
 <path d="m15.92 19.32c-0.19 0-0.3799-0.07-0.5299-0.22-0.29-0.29-0.29-0.77 0-1.06l2.5399-2.54c0.29-0.29 0.77-0.29 1.06 0s0.29 0.77 0 1.06l-2.5399 2.54c-0.15 0.14-0.3401 0.22-0.5301 0.22z"/>
 <path d="m12 21.65c-0.31 0-0.62-0.04-0.87-0.13-2.56-0.87-9.88-5.1101-9.88-12.83 0-3.5 2.83-6.34 6.31-6.34 1.67 0 3.27 0.67003 4.44 1.84 1.17-1.17 2.78-1.84 4.44-1.84 3.48 0 6.31 2.84 6.31 6.34 0 1.95-0.47 3.82-1.4 5.57-0.11 0.21-0.32 0.3601-0.56 0.3901s-0.48-0.0501-0.65-0.2301c-0.78-0.82-1.83-1.28-2.95-1.28-2.23 0-4.05 1.82-4.05 4.05 0 0.99 0.37 1.95 1.04 2.7 0.16 0.18 0.22 0.42 0.17 0.65s-0.21 0.43-0.42 0.53c-0.4 0.18-0.76 0.33-1.09 0.44-0.23 0.1-0.53 0.1401-0.84 0.1401zm-4.44-17.8c-2.65 0-4.81 2.17-4.81 4.84 0 6.84 6.57 10.62 8.87 11.41 0.18 0.07 0.57 0.06 0.75 0 0.03-0.01 0.06-0.02 0.09-0.03-0.52-0.86-0.81-1.85-0.81-2.87 0-3.06 2.49-5.5499 5.55-5.5499 1.18 0 2.3 0.3699 3.24 1.0399 0.54-1.28 0.81-2.62 0.81-4 0-2.67-2.16-4.84-4.81-4.84-1.5 0-2.94 0.72005-3.84 1.93-0.28 0.38-0.92 0.38-1.2 0-0.9-1.21-2.34-1.93-3.84-1.93z"/>
</svg>
